icons/lines/slider-vertical-one.svg

<svg xmlns="http://www.w3.org/2000/svg" width="24" height="24" viewBox="0 0 24 24" fill="none" stroke="currentColor" stroke-width="2" stroke-linecap="round" stroke-linejoin="round">
  <path d="M16.5 5c.62 0 1.17.02 1.66.09 2.63.29 3.34 1.53 3.34 4.91v4c0 3.38-.71 4.62-3.34 4.91-.49.07-1.04.09-1.66.09h-9c-.62 0-1.17-.02-1.66-.09C3.21 18.62 2.5 17.38 2.5 14v-4c0-3.38.71-4.62 3.34-4.91C6.33 5.02 6.88 5 7.5 5z" />
  <path d="M4.5 2h15" />
  <path d="M5 22h15" />
</svg>

<svg xmlns="http://www.w3.org/2000/svg" width="24" height="24" viewBox="0 0 24 24" fill="none" stroke="currentColor" stroke-width="2" stroke-linecap="round" stroke-linejoin="round" >
  <path d="M7.5 5H16.5C17.12 5 17.67 5.02 18.16 5.09C20.79 5.38 21.5 6.62 21.5 10V14C21.5 17.38 20.79 18.62 18.16 18.91C17.67 18.98 17.12 19 16.5 19H7.5C6.88 19 6.33 18.98 5.84 18.91C3.21 18.62 2.5 17.38 2.5 14V10C2.5 6.62 3.21 5.38 5.84 5.09C6.33 5.02 6.88 5 7.5 5Z"/>
  <path d="M4.5 2H19.5"/>
  <path d="M5 22H20"/>
  </svg>
